svgs/pako_highway.svg

<svg width="192" height="192" viewBox="0 0 192 192" fill="none" xmlns="http://www.w3.org/2000/svg">
<path d="M34.2475 105.343L28.6415 114.126M28.6415 114.126L19 129.231M28.6415 114.126L19 116.017M28.6415 114.126L42.3161 111.445M47.9703 101.786L42.3161 111.445M42.3161 111.445L35.7723 122.624M42.3161 111.445L44.9208 110.934M91.1717 103.662L74.3994 128.215M104 103.662L97.8485 112.932M97.8485 112.932L90.1717 124.5M97.8485 112.932L84.0562 115M97.8485 112.932L104.386 111.951M56.1024 104.835L44.9209 127.198M73.4206 102.802C73.4206 102.802 61.5797 108.393 58.6433 116.017C56.7779 120.86 58.6639 122.833 61.3743 123.232C64.0847 123.631 70.2836 117.419 73.0443 114.263M73.0443 114.263L69.6563 114.761M73.0443 114.263L76.4323 113.765M73.0443 114.263L66.2682 128.215M112.01 104.835L102.354 124.149L118.093 110.426L117.093 122.624L135.39 102.294M128.273 122.624L135.107 115.791M135.107 115.791L147.079 103.819L143.719 115.337M135.107 115.791L130.815 116.017M135.107 115.791L143.719 115.337M143.719 115.337L139.963 128.215M143.719 115.337L150.128 115M157.753 102.802C156.228 105.852 154.093 112.154 157.753 112.967C161.412 113.78 169.442 107.546 173 104.327L150.637 127.198" stroke="black" stroke-width="6" stroke-linecap="round" stroke-linejoin="round"/>
<path d="M28 78.2321L26 89.5746M28 78.2321H43C47 78.2321 50.8287 75.3073 51.5 71.5C52.0056 68.6323 50.8986 66.1133 48.5532 63.9763C46.9362 62.5031 44.7059 62 42.5185 62H30.8622L28 78.2321ZM60.3492 84.4044L74.8622 62L81.4742 84.4044M60.3492 84.4044L57 89.5746M60.3492 84.4044H81.4742M81.4742 84.4044L83 89.5746M98 89.5746L102.862 62M128.862 62L110.181 75.7873L124 89.5746M165.605 74.8025L165.257 76.7721C164.011 83.8427 157.18 89.5746 150 89.5746C142.82 89.5746 138.011 83.8427 139.257 76.7721L139.605 74.8025C140.851 67.7319 147.682 62 154.862 62C162.042 62 166.851 67.7319 165.605 74.8025Z" stroke="black" stroke-width="10" stroke-linecap="round" stroke-linejoin="round"/>
</svg>

<svg xmlns="http://www.w3.org/2000/svg" width="192" height="192" fill="none" viewBox="0 0 192 192">
  <path stroke="#000" stroke-linecap="round" stroke-linejoin="round" stroke-width="6" d="m34.248 105.343-5.606 8.783m0 0L19 129.231m9.642-15.105L19 116.017m9.642-1.891 13.674-2.681m5.654-9.659-5.654 9.659m0 0-6.544 11.179m6.544-11.179 2.605-.511m46.25-7.272L74.4 128.215m29.6-24.553-6.151 9.27m0 0L90.172 124.5m7.677-11.568L84.055 115m13.793-2.068 6.537-.981m-48.284-7.116L44.92 127.198m28.5-24.396s-11.841 5.591-14.778 13.215c-1.865 4.843.02 6.816 2.731 7.215 2.71.399 8.91-5.813 11.67-8.969m0 0-3.388.498m3.388-.498 3.388-.498m-3.388.498-6.776 13.952m45.742-23.38-9.656 19.314 15.739-13.723-1 12.198 18.297-20.33m-7.117 20.33 6.834-6.833m0 0 11.972-11.972-3.36 11.518m-8.612.454-4.292.226m4.292-.226 8.612-.454m0 0-3.756 12.878m3.756-12.878 6.409-.337m7.625-12.198c-1.525 3.05-3.66 9.352 0 10.165 3.659.813 11.689-5.421 15.247-8.64l-22.363 22.871"/>
  <path fill="#000" d="M30.862 62v-5a5 5 0 0 0-4.924 4.132l4.924.868ZM28 78.232l-4.924-.868 4.924.868Zm-6.924 10.474a5 5 0 0 0 9.848 1.737l-9.848-1.737ZM51.5 71.5l-4.924-.868 4.924.868Zm8.85 12.904-4.197-2.718 4.196 2.718ZM74.861 62l4.796-1.415a5 5 0 0 0-8.992-1.303L74.862 62ZM52.804 86.856a5 5 0 0 0 8.392 5.437l-8.392-5.437Zm25.4 4.134a5 5 0 1 0 9.592-2.83l-9.592 2.83Zm14.872-2.284a5 5 0 0 0 9.848 1.737l-9.848-1.737Zm14.71-25.838a5 5 0 1 0-9.848-1.736l9.848 1.736Zm24.045 3.155a5 5 0 1 0-5.938-8.046l5.938 8.046Zm-21.65 9.764-2.969-4.023-4.68 3.455 4.118 4.108 3.531-3.54Zm10.288 17.327a5 5 0 1 0 7.062-7.079l-7.062 7.08Zm18.788-16.342-4.924-.868 4.924.868Zm26 0 4.924.868-4.924-.868Zm.348-1.97-4.924-.868 4.924.868Zm-26 0 4.924.869-4.924-.869ZM48.553 63.976l-3.367 3.696 3.367-3.696ZM30.863 67h11.656V57H30.862v10Zm-7.787 10.364-2 11.342 9.848 1.737 2-11.343-9.848-1.736ZM43 73.232H28v10h15v-10ZM32.924 79.1l2.862-16.232-9.848-1.736-2.862 16.232 9.848 1.736Zm13.652-8.468c-.2 1.135-1.704 2.6-3.576 2.6v10c6.128 0 12.282-4.384 13.424-10.864l-9.848-1.736Zm-1.39-2.96c1.403 1.279 1.529 2.171 1.39 2.96l9.848 1.736c.872-4.946-1.216-9.092-4.503-12.088l-6.735 7.392Zm19.36 19.45 14.513-22.404-8.393-5.436-14.513 22.404 8.393 5.437Zm5.52-23.707L76.68 85.82l9.59-2.83-6.611-22.405-9.591 2.83Zm-8.87 28.878 3.35-5.17-8.393-5.437-3.35 5.17 8.394 5.437ZM76.68 85.82l1.525 5.17 9.592-2.83-1.526-5.17-9.591 2.83Zm26.245 4.623 4.862-27.575-9.848-1.736-4.862 27.574 9.848 1.737Zm22.969-32.466-18.681 13.787 5.938 8.046 18.681-13.787-5.938-8.046Zm-19.243 21.35 13.819 13.787 7.062-7.079-13.818-13.787-7.063 7.079Zm54.031-5.393-.348 1.97 9.848 1.736.348-1.97-9.848-1.736Zm-16.5 3.706.348-1.97-9.848-1.736-.348 1.97 9.848 1.736ZM150 84.575c-2.215 0-3.771-.856-4.701-1.964-.929-1.108-1.502-2.789-1.118-4.97l-9.848-1.737c-.862 4.889.347 9.609 3.306 13.135 2.958 3.526 7.397 5.536 12.361 5.536v-10Zm10.333-8.671c-.825 4.68-5.58 8.67-10.333 8.67v10c9.606 0 18.513-7.473 20.181-16.934l-9.848-1.736ZM154.862 67c2.215 0 3.772.856 4.701 1.964.93 1.107 1.502 2.789 1.118 4.97l9.848 1.737c.862-4.89-.347-9.61-3.305-13.135C164.265 59.01 159.827 57 154.862 57v10Zm0-10c-9.606 0-18.513 7.474-20.181 16.934l9.848 1.737c.825-4.681 5.58-8.671 10.333-8.671V57ZM81.474 79.404H60.35v10h21.125v-10ZM42.518 67c1.556 0 2.342.376 2.668.672l6.735-7.392C49.013 57.63 45.338 57 42.519 57v10Z"/>
</svg>
